icon-themes/breeze_svg/cmd/32/smallestwidth.svg

<svg viewBox="0 0 32 32" xmlns="http://www.w3.org/2000/svg"><path d="m4 4v9h17.5l-3.5-3.5-1-1 1-1 3.5-3.5zm19 0-.292969.2070312-3.792969 3.7929688h9.085938v-2.5-1.5zm-4.085938 5 3.792969 3.792969.292969.207031h5v-1.5-2.5zm-14.914062 8v11h1.8339844 9.1660156v-9.166016-1.833984z" fill="#4d4d4d"/></svg>

<svg xmlns="http://www.w3.org/2000/svg" viewBox="0 0 32 32">
 <path 
     style="fill:#4d4d4d" 
     d="M 4 4 L 4 13 L 21.5 13 L 18 9.5 L 17 8.5 L 18 7.5 L 21.5 4 L 4 4 z M 23 4 L 22.707031 4.2070312 L 18.914062 8 L 28 8 L 28 5.5 L 28 4 L 23 4 z M 18.914062 9 L 22.707031 12.792969 L 23 13 L 28 13 L 28 11.5 L 28 9 L 18.914062 9 z M 4 17 L 4 28 L 5.8339844 28 L 15 28 L 15 18.833984 L 15 17 L 4 17 z "
     />
</svg>
